X:404
T: "Der Reiter"
N: Z1084
O: Europa, Mitteleuropa, Deutschland, Niederrhein
R: Romanze, Ballade
M: 4/4
L: 1/8
K: A
E2 | A2A2=ccdB | =c2c2=G2
G2 | A2E=F=G2G2 | E4z2
=CD | E2EE=G2GG | E3D=C2
A2 | E2A2B2=c2 | B4e2
e^d | e2AB=c2E2 | A4z2

@@@ Tune index: 10162
